!!!COM: Gabriel Faure/
!!!CNT: Francais
!!!TXO: Francais
!!!OTL: "Donc, ce sera par un clair jour d'e/te/"
!!!LYR: Verlaine
!!!OPR: La bonne chanson
!!!OPS: Op. 61
!!!ONM: No. 7
!!!ENC: Emily Thomas
!!!YOR: CD Sheet Music French Art Songs, The Ultimate Collection
!!!YOR: CD Sheet Music, LLC 2003
!!!ODT: 1894/
!!NB: Vocal melody and text encoded.
**kern	**silbe
=1	=1
*clefG2	*
*k[b-e-]	*
*M4/4	*
*MM[Allegro non troppo]	*
1r	.
=2	=2
{2dd	{Donc
16cc#	ce
16cc#	se-
4ff	-ra
8dd	par
=3	=3
8cc	un
8a	clair
8.g	jour
16f	d'e/-
[2f	-te/;
=4	=4
8f]}	|}
8r	.
4r	.
2r	.
=5	=5
8r	.
{8f	{Le
8.dd	grand
16dd	so-
4.ff	-leil,
8ee-	com-
=6	=6
8.dd	-pli-
16cc	-ce
8b-	de
8g	ma
4cc	joi-
[4dd	-e
=7	=7
4dd]}	|}
8r	.
{8ee-	{Fe-
4.b-	-ra,
8b-	par-
=8	=8
12b-	-mi
12cc	le
12dd	sa-
12b-	-tin
12g	et
12b-	la
4dd	soi-
8dd}	-e,}
{8dd	{Plus
=9	=9
4.ee-	belle
8ee-	en-
4.een	-co-
8dd	-re
=10	=10
8cc#	vo-
[8ff	|
4ff_	|
4.ff]	|
8dd	-tre
=11	=11
8cc	che\-
8a	|
8.g	-re
16g	beau-
[2f	-te/;
=12	=12
4f_	|
8f]}	|}
8r	.
2r	.
=13	=13
4r	.
8r	.
{8cc#	{Le
4.ff#	ciel
8een	tout
=14	=14
2dd	bleu,
12cc#	comme
12bn	u-
12a	-ne
6g	bau-
12a	te
=15	=15
2bn	ten-
4b-}	-te}
8r	.
{8b-	{Fris-
=16	=16
8.a-	-son-
16b-	-ne-
2cc	-ra
8.cc#	somp-
16dd#	-tu-
=17	=17
2.een}	-eux,}
{8.ee#	{a\
16ee#	longs
=18	=18
2ff#	plis,
4ee#	Sur
8.ee#	nos
16dd#	deux
=19	=19
4.cc#	fronts
8cc#	qu'au-
4.ddn	-ront
8b-	pa^-
=20	=20
*M2/4	*
4.cc#	-lis
8cc#	L'e/-
=21	=21
*M4/4	*
16cc#	-mo-
16cc#	-ti-
4ff	-on
16een	du
16een	bon-
[2ee-	-heur
=22	=22
2ee-]	|
4.ee-	et
8ee-	l'at-
=23	=23
2dd	-ten-
[2cc	-te;
=24	=24
2cc_	|
4cc_	|
8cc]}	|}
8r	.
=25	=25
1r	.
=26	=26
*M3/2	*
1.r	.
=27	=27
*M9/8	*
2.r	.
4.r	.
=28	=28
2.r	.
4.r	.
=29	=29
4r	.
8r	.
4r	.
8r	.
{4.b-	{Et
=30	=30
4a	quand
8a	le
[4.cc	soir
4cc]	|
8a	vien-
=31	=31
4.a-	-dra,
4.a-	l'air
4a-	se-
8b-	-ra
=32	=32
[4.cc	doux
4cc]}	|}
{8cc	{Qui
4dd	se
8dd	joue-
=33	=33
*M12/8	*
4.cc	-ra,
4dd	ca-
8dd	-res-
4.cc	-sant,
4ee-	dans
8ee-	vos
=34	=34
*M9/8	*
[2.dd	voi-
4.dd]	|
=35	=35
[2.cc	-les,
8cc]}	|}
8r	.
8r	.
=36	=36
4r	.
8r	.
4r	.
8r	.
{4.ee-	{Et
=37	=37
4ee-	les
8ee-	re
[4.een	gards
4een]	|
8een	pai-
=38	=38
4.ff	-si-
4.b-	-bles
4cc	des
8cc	e/-
=39	=39
2.ff	-toi-
4.b-	|
=40	=40
[4.a-	-les
8a-]}	|}
8r	.
8r	.
{4.g	{bien-
=41	=41
4ee-	-veil-
8ee-	-lam-
2.ee-	-ment
=42	=42
4dd	sou-
8ff	-ri
[2.dd	-ront
=43	=43
4.dd]	|
[4.cc	aux
4cc]	|
8b-	e/-
=44	=44
[2.b-	-poux!
4.b-_	|
=45	=45
4.b-]}	|}
4r	.
8r	.
4r	.
8r	.
==	==
*-	*-
